fs/table_move_right_24_filled.svg

<svg viewBox="0 0 24 24" fill="none" xmlns="http://www.w3.org/2000/svg" height="1em" width="1em">
  <path d="M8 3H6.25C4.45508 3 3 4.45507 3 6.25V8L8 8L8 3ZM8 9.5L3 9.5V14.5H8L8 9.5ZM9.5 14.5L9.5 9.5L13.5179 9.5C13.4821 9.74942 13.4999 10.0057 13.5725 10.25H12.75C11.7835 10.25 11 11.0335 11 12C11 12.9665 11.7835 13.75 12.75 13.75H13.5725C13.4999 13.9943 13.4821 14.2506 13.5179 14.5H9.5ZM8 16H3V17.75C3 19.5449 4.45507 21 6.25 21H8L8 16ZM9.5 21L9.5 16H14.5V20.25C14.5 20.4489 14.421 20.6397 14.2803 20.7803C14.1397 20.921 13.9489 21 13.75 21H9.5ZM9.5 8L9.5 3H13.75C14.1642 3 14.5 3.33579 14.5 3.75V8L9.5 8ZM19.5 20.25C19.5 20.6642 19.8358 21 20.25 21C20.6642 21 21 20.6642 21 20.25L21 3.75C21 3.33579 20.6642 3 20.25 3C19.8358 3 19.5 3.33579 19.5 3.75L19.5 20.25ZM14.7517 14.8105C14.4421 14.5354 14.4143 14.0613 14.6895 13.7517L15.5799 12.75H12.75C12.3358 12.75 12 12.4142 12 12C12 11.5858 12.3358 11.25 12.75 11.25H15.5799L14.6895 10.2483C14.4143 9.93868 14.4421 9.46462 14.7517 9.18944C15.0613 8.91425 15.5354 8.94213 15.8106 9.25172L17.8106 11.5017C18.0632 11.7859 18.0632 12.2141 17.8106 12.4983L15.8106 14.7483C15.5354 15.0579 15.0613 15.0857 14.7517 14.8105Z" fill="#212121"/>
</svg>

<svg viewBox="0 0 24 24" fill="none" xmlns="http://www.w3.org/2000/svg" height="1em" width="1em">
  <path d="M8 3H6.25A3.25 3.25 0 0 0 3 6.25V8h5V3Zm0 6.5H3v5h5v-5Zm1.5 5v-5h4.018c-.036.25-.018.506.054.75h-.822a1.75 1.75 0 1 0 0 3.5h.822c-.072.244-.09.5-.054.75H9.5ZM8 16H3v1.75A3.25 3.25 0 0 0 6.25 21H8v-5Zm1.5 5v-5h5v4.25a.75.75 0 0 1-.75.75H9.5Zm0-13V3h4.25a.75.75 0 0 1 .75.75V8h-5Zm10 12.25a.75.75 0 0 0 1.5 0V3.75a.75.75 0 0 0-1.5 0v16.5Zm-4.748-5.44a.75.75 0 0 1-.063-1.058l.89-1.002H12.75a.75.75 0 0 1 0-1.5h2.83l-.89-1.002a.75.75 0 1 1 1.12-.996l2 2.25a.75.75 0 0 1 0 .996l-2 2.25a.75.75 0 0 1-1.058.063Z" fill="#212121"/>
</svg>
